icons/icon.svg

<svg width="16" height="16" viewBox="0 0 16 16" fill="none" xmlns="http://www.w3.org/2000/svg">
<rect width="16" height="16" rx="4" fill="white"/>
<path d="M11.8306 10.378H11.0866L11.2186 6.97L11.6746 4.642H13.4986L13.0426 6.97L11.8306 10.378ZM10.9066 13.162C10.5706 13.162 10.3306 13.098 10.1866 12.97C10.0506 12.834 9.98264 12.666 9.98264 12.466C9.98264 12.426 9.98664 12.378 9.99464 12.322C10.0026 12.258 10.0226 12.138 10.0546 11.962C10.1106 11.682 10.2346 11.462 10.4266 11.302C10.6266 11.134 10.9066 11.05 11.2666 11.05C11.6026 11.05 11.8386 11.118 11.9746 11.254C12.1186 11.382 12.1906 11.546 12.1906 11.746C12.1906 11.778 12.1866 11.826 12.1786 11.89C12.1786 11.954 12.1586 12.074 12.1186 12.25C12.0626 12.522 11.9346 12.742 11.7346 12.91C11.5426 13.078 11.2666 13.162 10.9066 13.162Z" fill="black"/>
<path d="M7.81864 11.942L7.55464 13.358H6.23464C5.75464 13.358 5.41864 13.262 5.22664 13.07C5.03464 12.886 4.93864 12.622 4.93864 12.278C4.93864 12.174 4.94664 12.07 4.96264 11.966C4.97864 11.862 4.99864 11.754 5.02264 11.642L5.11864 11.198C4.71864 11.086 4.35464 10.898 4.02664 10.634C3.70664 10.362 3.45064 10.002 3.25864 9.554C3.07464 9.098 2.98264 8.55 2.98264 7.91C2.98264 7.678 2.99464 7.454 3.01864 7.238C3.04264 7.014 3.07464 6.794 3.11464 6.578C3.22664 6.01 3.40664 5.49 3.65464 5.018C3.91064 4.538 4.21864 4.122 4.57864 3.77C4.94664 3.41 5.35864 3.134 5.81464 2.942C6.27864 2.742 6.77464 2.642 7.30264 2.642C7.83864 2.642 8.33464 2.762 8.79064 3.002C9.24664 3.234 9.61464 3.602 9.89464 4.106C10.1746 4.602 10.3146 5.246 10.3146 6.038C10.3146 6.262 10.3026 6.486 10.2786 6.71C10.2546 6.934 10.2226 7.154 10.1826 7.37C10.0786 7.874 9.91864 8.346 9.70264 8.786C9.49464 9.226 9.23464 9.618 8.92264 9.962C8.61064 10.306 8.25864 10.59 7.86664 10.814C7.48264 11.038 7.06664 11.186 6.61864 11.258L6.48664 11.942H7.81864ZM7.18264 4.19C6.81464 4.19 6.48664 4.274 6.19864 4.442C5.91064 4.61 5.67064 4.854 5.47864 5.174C5.29464 5.494 5.15464 5.882 5.05864 6.338L4.80664 7.598C4.78264 7.718 4.76664 7.83 4.75864 7.934C4.75064 8.038 4.74664 8.134 4.74664 8.222C4.74664 8.726 4.85864 9.11 5.08264 9.374C5.31464 9.63 5.65864 9.758 6.11464 9.758C6.49064 9.758 6.81864 9.674 7.09864 9.506C7.38664 9.338 7.62664 9.094 7.81864 8.774C8.01064 8.454 8.15064 8.066 8.23864 7.61L8.49064 6.35C8.51464 6.23 8.53064 6.118 8.53864 6.014C8.54664 5.902 8.55064 5.806 8.55064 5.726C8.55064 5.222 8.43464 4.842 8.20264 4.586C7.97864 4.322 7.63864 4.19 7.18264 4.19Z" fill="black"/>
</svg>

<svg xmlns="http://www.w3.org/2000/svg" width="16" height="16" fill="none" viewBox="0 0 16 16">
  <rect width="16" height="16" fill="#fff" rx="4"/>
  <path fill="#000" d="M11.83 10.378h-.743l.132-3.408.456-2.328h1.824l-.456 2.328zm-.923 2.784q-.504 0-.72-.192a.69.69 0 0 1-.204-.504q0-.06.012-.144.012-.096.06-.36.084-.42.372-.66.3-.252.84-.252.504 0 .708.204a.63.63 0 0 1 .216.492q0 .048-.012.144 0 .096-.06.36a1.13 1.13 0 0 1-.384.66q-.288.252-.828.252M7.819 11.942l-.264 1.416h-1.32q-.72 0-1.008-.288-.288-.276-.288-.792 0-.156.024-.312t.06-.324l.096-.444q-.6-.168-1.092-.564a2.9 2.9 0 0 1-.768-1.08q-.276-.684-.276-1.644 0-.348.036-.672.036-.336.096-.66a5.7 5.7 0 0 1 .54-1.56 5 5 0 0 1 .924-1.248q.552-.54 1.236-.828.696-.3 1.488-.3.804 0 1.488.36.684.348 1.104 1.104.42.744.42 1.932 0 .336-.036.672a9 9 0 0 1-.096.66 6 6 0 0 1-.48 1.416q-.312.66-.78 1.176a4.3 4.3 0 0 1-1.056.852q-.576.336-1.248.444l-.132.684zM7.183 4.19q-.552 0-.984.252a2.04 2.04 0 0 0-.72.732 4 4 0 0 0-.42 1.164l-.252 1.26q-.036.18-.048.336t-.012.288q0 .756.336 1.152.348.384 1.032.384.564 0 .984-.252.432-.252.72-.732t.42-1.164l.252-1.26q.036-.18.048-.336a4 4 0 0 0 .012-.288q0-.756-.348-1.14-.336-.396-1.02-.396"/>
</svg>
